images/illustrations/beginning.svg

<svg width="48" height="48" viewBox="0 0 48 48" fill="none" xmlns="http://www.w3.org/2000/svg">
<circle cx="24.7051" cy="17" r="3" fill="white" stroke="#FF0033" stroke-width="2"/>
<path fill-rule="evenodd" clip-rule="evenodd" d="M18.4202 44.9702L16.6055 44.1294L18.287 40.5L20.1017 41.3408L18.4202 44.9702ZM25.5139 47.7316H23.5139L23.5139 41.7316L25.5139 41.7316L25.5139 47.7316ZM30.7988 40.5796L28.9846 41.4213L30.6681 45.0498L32.4824 44.208L30.7988 40.5796Z" fill="#FF0033"/>
<path fill-rule="evenodd" clip-rule="evenodd" d="M24.5836 3.15812L32.6249 10.0617L33.3093 32.9775H15.8372L16.8644 10.0503L24.5836 3.15812ZM35.2482 30.9011L35.3102 32.9775L35.3699 34.9775H33.369H30.8305V38.7361H18.0113V34.9775H15.7476H13.7456L13.8352 32.9775L13.9338 30.7776L7.96919 33.4075L5.99902 34.2762L6.60635 32.2104L9.30939 23.0164L9.43272 22.597L9.82442 22.4027L14.4109 20.1276L14.9041 9.11938L24.5578 0.5L34.5976 9.11938L34.9329 20.3468L39.0775 22.4027L39.4692 22.597L39.5925 23.0164L42.2955 32.2104L42.9029 34.2762L40.9327 33.4075L35.2482 30.9011ZM35.182 28.6861L39.7694 30.7088L37.7971 24L35.0006 22.6129L35.182 28.6861ZM14.3086 22.4109L14.0337 28.5478L9.13248 30.7088L11.1049 24L14.3086 22.4109ZM19.8423 34.9775V36.9048H28.9989V34.9775H19.8423Z" fill="#030322"/>
</svg>

<svg width="48" height="48" fill="none" xmlns="http://www.w3.org/2000/svg"><circle cx="24.705" cy="17" r="3" fill="#fff" stroke="#F03" stroke-width="2"/><path fill-rule="evenodd" clip-rule="evenodd" d="M18.42 44.97l-1.815-.84 1.682-3.63 1.815.84-1.682 3.63zm7.094 2.762h-2v-6h2v6zm5.285-7.152l-1.814.841 1.683 3.629 1.814-.842L30.8 40.58z" fill="#F03"/><path fill-rule="evenodd" clip-rule="evenodd" d="M24.584 3.158l8.04 6.904.685 22.915H15.837l1.027-22.927 7.72-6.892zm10.664 27.743l.062 2.076.06 2h-4.54v3.76H18.01v-3.76h-4.265l.09-2 .098-2.2-5.965 2.63-1.97.87.607-2.067 2.703-9.194.124-.419.391-.194 4.587-2.275.493-11.009L24.558.5l10.04 8.62.335 11.227 4.145 2.056.391.194.123.42 2.703 9.193.608 2.066-1.97-.869-5.685-2.506zm-.066-2.215l4.587 2.023L37.797 24l-2.796-1.387.181 6.073zm-20.873-6.275l-.275 6.137-4.902 2.16L11.105 24l3.204-1.59zm5.533 12.566v1.928H29v-1.928h-9.157z" fill="#030322"/></svg>
